X: 145
T: Put on thy Smock on a Monday
M:6/8
L:1/8
Q:160
S:Playford
O:Manuscript
A:English
K:C
c| c2 G E2 G| d3 d2 B| c2 B c2 d| g3 g2 e|d>ef e>dc|d2 B G>AB|c2 G E2 G| c3 c2:|

